public/images/rocks/rock-blue.svg

<svg version="1.1" id="Layer_1" xmlns="http://www.w3.org/2000/svg" xmlns:xlink="http://www.w3.org/1999/xlink" x="0px" y="0px"
	 width="100%" viewBox="0 0 462 363" enable-background="new 0 0 462 363" xml:space="preserve">
<path fill="#2470A7" opacity="1.000000" stroke="none"
	d="
M149.680756,76.689682
	C166.747910,67.800560 183.720306,59.400097 202.017838,54.681656
	C216.687073,50.898857 231.716461,48.223824 246.740158,46.203259
	C257.195587,44.797089 267.910309,45.145390 278.512421,45.040810
	C297.875397,44.849812 316.749634,48.276543 335.137268,54.050117
	C344.877747,57.108543 355.042633,59.992916 363.661987,65.197975
	C381.385315,75.900749 393.700195,91.825996 402.080048,110.798813
	C409.727295,128.112930 413.275940,146.405380 416.122955,164.984619
	C419.238373,185.315720 420.400452,205.711838 419.983795,226.224777
	C419.671478,241.601517 415.087250,255.539795 404.509491,266.954590
	C395.849030,276.300415 384.710449,282.603729 373.024963,286.656860
	C356.136963,292.514496 338.599030,296.543823 321.250458,301.011719
	C310.201263,303.857300 299.046936,306.366821 287.841614,308.515137
	C274.991669,310.978821 262.029083,312.852234 249.123077,315.027313
	C237.827026,316.931030 226.573242,319.113525 215.242508,320.775421
	C203.878601,322.442139 192.452789,323.709137 181.035080,324.980255
	C170.898132,326.108704 160.753448,327.518433 150.579285,327.880951
	C134.670868,328.447845 120.940498,322.870758 108.708832,312.463806
	C98.751228,303.991638 89.575653,295.139160 82.355446,284.105194
	C75.871964,274.197083 71.043320,263.646179 70.215088,252.021591
	C69.255013,238.546341 69.827744,224.950287 69.995392,211.409897
	C70.134956,200.136597 70.627296,188.867172 71.005898,177.597458
	C71.525864,162.119980 73.369270,146.998718 80.839546,132.969406
	C86.018616,123.242996 92.667046,114.800171 101.432396,108.327766
	C112.863106,99.887245 124.701935,91.990105 136.509048,84.073799
	C140.572327,81.349487 145.067612,79.269524 149.680756,76.689682
z"/>
</svg>

<svg viewBox="0 0 462 363" xml:space="preserve" xmlns="http://www.w3.org/2000/svg">
  <path d="M149.68 76.69c17.07-8.89 34.04-17.29 52.34-22a384.6 384.6 0 0 1 44.72-8.49c10.45-1.4 21.17-1.05 31.77-1.16 19.36-.19 38.24 3.24 56.63 9.01 9.74 3.06 19.9 5.94 28.52 11.15 17.72 10.7 30.04 26.63 38.42 45.6 7.65 17.31 11.2 35.6 14.04 54.19a355.55 355.55 0 0 1 3.86 61.24c-.31 15.37-4.9 29.31-15.47 40.73-8.66 9.34-19.8 15.64-31.49 19.7-16.88 5.86-34.42 9.88-51.77 14.35a547.1 547.1 0 0 1-33.41 7.5c-12.85 2.47-25.81 4.34-38.72 6.52-11.3 1.9-22.55 4.08-33.88 5.75-11.36 1.66-22.79 2.93-34.2 4.2-10.14 1.13-20.29 2.54-30.46 2.9-15.91.57-29.64-5-41.87-15.42-9.96-8.47-19.14-17.32-26.36-28.35-6.48-9.91-11.3-20.46-12.14-32.09-.96-13.47-.38-27.07-.22-40.61.14-11.27.64-22.54 1.01-33.81.52-15.48 2.37-30.6 9.84-44.63 5.18-9.73 11.83-18.17 20.6-24.64 11.42-8.44 23.26-16.34 35.07-24.26 4.06-2.72 8.56-4.8 13.17-7.38z" fill="#2470A7"/>
</svg>
